X:1
T:Title
%%score { 1 | 2 }
L:1/8
M:4/4
K:D
V:1 treble nm="Grand Piano"
V:2 bass 
V:1
 z4 z[Q:1/4=92] F F>[EG] | [FA]3 [Fd] [Gc][Ge] [Gd]>[GB] | [FA]2 F2 z F F>[EG] | %3
 [FA]2 [Fd]2 [DF][GB][FA][DF] | [CE]4 z [DF] [DF]>[EG] | [FA]3 [Fd] [Gc][Ge] [Gd]>[GB] | %6
 [FA]2 [DF]2 z [FA][EA]B | c2 [Fd]2 cBA^G |[M:5/8] [CEA]- [CEA]3 z |[M:3/8][Q:1/4=88] .e.B.c | %10
[M:4/4] [Fd]3 D FA d>B | A2 F2 z [Fd][Gd][Ad] |[M:9/8] [Gd]3 [^Gd][Ad][EBd] [EAc]3/2[DGB]3/2 | %13
[M:4/4] [CEA]4 z [CEA][CEB][Gc] | [Fd]2 [FA]2 FDF[FA] | [Ac]2 B2 z dcB | %16
 A3 A BBcc[Q:1/4=87][Q:1/4=85][Q:1/4=84][Q:1/4=83][Q:1/4=82][Q:1/4=80][Q:1/4=79][Q:1/4=78][Q:1/4=76][Q:1/4=75][Q:1/4=74][Q:1/4=72][Q:1/4=71][Q:1/4=70][Q:1/4=69][Q:1/4=67] | %17
[M:5/8] [Fd]- [Fd]3 z |] %18
V:2
 z4 z [D,A,D] [D,A,D]>[D,A,] | [D,D]3 [D,A,] [D,^A,][D,A,] [D,B,]>[D,D] | %2
 [D,D]2 [D,A,D]2 z [D,A,D] [D,A,D]>[D,A,] | [D,D]2 [D,A,]2 [D,A,][D,D][D,D][D,A,] | %4
 [A,,A,]4 z [D,A,] [D,A,]>[D,A,] | [D,D]3 [D,A,] [D,^A,][D,A,] [D,B,]>[D,D] | %6
 [D,D]2 [D,A,]2 z [D,A,][C,A,][E,^G,E] | [A,E]2 [D,A,]2 [E,A,E][E,DE][E,CE][E,B,E] | %8
[M:5/8] A,,- A,,3 z |[M:3/8][K:treble] .[A,CG].[A,CG].[A,G] |[M:4/4][K:bass] [D,A,]3 D, F,A, D>B, | %11
 A,2 F,2 z [D,A,][E,A,][F,=C] |[M:9/8] [G,B,]3 [E,B,][E,B,]^G, A,3/2E,3/2 | %13
[M:4/4] A,,4 z G,G,[E,A,] | [D,A,]2 [D,D]2 [D,A,D][D,F,][D,A,D][D,D] | %15
 [G,D]2 [G,DG]2 z [^G,D=F][G,DF][G,DF] | [A,DF]3 [A,DF] [A,CG][A,CG][A,EG][A,G] | %17
[M:5/8][K:bass] [D,A,]- [D,A,]3 z |] %18

